icons/Octave-Dark.svg

<svg width="256" height="256" viewBox="0 0 256 256" fill="none" xmlns="http://www.w3.org/2000/svg">
<rect width="256" height="256" rx="60" fill="#242938"/>
<path d="M61.8516 48.7731C30.8478 82.4656 38.3617 145.254 78.6254 189.01C118.889 232.765 176.658 240.92 207.662 207.228C238.666 173.535 231.173 110.744 190.909 66.9886C150.646 23.2331 92.8555 15.0805 61.8516 48.7731V48.7731ZM89.9653 62.769C114.326 36.2956 159.117 42.0543 190.017 75.6337C220.917 109.213 226.216 157.889 201.855 184.362C177.494 210.836 132.691 205.09 101.792 171.51C70.8917 137.931 65.6045 89.2424 89.9653 62.769V62.769Z" fill="url(#paint0_radial_307_195)"/>
<path d="M196.287 60.7383H179.516C176.98 60.7383 174.924 62.7943 174.924 65.3305V82.1019C174.924 84.6381 176.98 86.6941 179.516 86.6941H196.287C198.824 86.6941 200.88 84.6381 200.88 82.1019V65.3305C200.88 62.7943 198.824 60.7383 196.287 60.7383Z" fill="#FF7F2A" stroke="#D45500" stroke-width="6.28859"/>
<path d="M79.3188 94.9331H39.8162C33.8426 94.9331 29 99.7757 29 105.749V145.252C29 151.225 33.8426 156.068 39.8162 156.068H79.3188C85.2924 156.068 90.135 151.225 90.135 145.252V105.749C90.135 99.7757 85.2924 94.9331 79.3188 94.9331Z" fill="#FF7F2A" stroke="#D45500" stroke-width="6.28859"/>
<path d="M217.396 174.966H193.531C189.922 174.966 186.996 177.892 186.996 181.501V205.366C186.996 208.975 189.922 211.901 193.531 211.901H217.396C221.005 211.901 223.931 208.975 223.931 205.366V181.501C223.931 177.892 221.005 174.966 217.396 174.966Z" fill="#FF7F2A" stroke="#D45500" stroke-width="6.28859"/>
<defs>
<radialGradient id="paint0_radial_307_195" cx="0" cy="0" r="1" gradientUnits="userSpaceOnUse" gradientTransform="translate(89.314 200.307) rotate(-47.3797) scale(300.774 999.837)">
<stop stop-color="#008CBE"/>
<stop offset="1" stop-color="#B2FFFF"/>
</radialGradient>
</defs>
</svg>

<svg xmlns="http://www.w3.org/2000/svg" width="256" height="256" fill="none" viewBox="0 0 256 256"><rect width="256" height="256" fill="#242938" rx="60"/><path fill="url(#a)" d="M61.85 48.77c-31 33.7-23.49 96.48 16.78 140.24s98.03 51.91 129.03 18.22c31-33.7 23.51-96.49-16.75-140.24S92.86 15.09 61.85 48.77m28.12 14c24.36-26.47 69.15-20.72 100.05 12.86s36.2 82.26 11.83 108.73c-24.36 26.48-69.16 20.73-100.06-12.85S65.6 89.24 89.97 62.77"/><path fill="#FF7F2A" stroke="#D45500" stroke-width="6.29" d="M196.29 60.74h-16.77a4.6 4.6 0 0 0-4.6 4.59V82.1a4.6 4.6 0 0 0 4.6 4.6h16.77a4.6 4.6 0 0 0 4.59-4.6V65.33a4.6 4.6 0 0 0-4.6-4.6ZM79.32 94.93h-39.5A10.8 10.8 0 0 0 29 105.75v39.5c0 5.97 4.84 10.82 10.82 10.82h39.5c5.97 0 10.82-4.84 10.82-10.82v-39.5c0-5.97-4.85-10.82-10.82-10.82Zm138.08 80.04h-23.87a6.54 6.54 0 0 0-6.53 6.53v23.87c0 3.6 2.92 6.53 6.53 6.53h23.87c3.6 0 6.53-2.93 6.53-6.53V181.5c0-3.6-2.93-6.53-6.53-6.53Z"/><defs><radialGradient id="a" cx="0" cy="0" r="1" gradientTransform="rotate(-47.38 272.92 -1.63)scale(300.774 999.837)" gradientUnits="userSpaceOnUse"><stop stop-color="#008CBE"/><stop offset="1" stop-color="#B2FFFF"/></radialGradient></defs></svg>
